X: 252
T:Victimae paschali laudes / D'ung aultre amer / Dic nobis Maria
N: Derived from Jos2206-Victimae_paschali_laudes__Dung_aultre_amer.krn
C: Josquin des Prez
%%abc-version 2.0
%%abcx-abcm2ps-target-version 5.9.1 (29 Sep 2008)
%%abc-creator hum2abc beta
%%abcx-conversion-date 2019/02/12 16:15:51
%%abc-edited-by Jesse Rodin
%%abc-edited-by Jesse Rodin; Victoria Chang 2011/05/21
%%abcx-initial-encoding-date 2011/05/21/
%%humdrum-veritas 1472696690
%%humdrum-veritas-data 2759646354
%%linebreak <none>
%%barnumbers 0
L: 1/4
M: 2/1
Q: 1/2=120
%%staves [1 2 3 4]
V: 1 clef=treble
V: 2 clef=treble-8
V: 3 clef=treble-8
V: 4 clef=bass
K: F
[V:1] G8 | 
[V:2] z8 | 
[V:3] G8 | 
[V:4] z8 | 
[V:1] A4G4 | 
[V:2] z8 | 
[V:3] F4G4 | 
[V:4] z8 | 
[V:1] d6cB | 
[V:2] GABcd3e | 
[V:3] B8 | 
[V:4] G,8 | 
[V:1] A4A4 | 
[V:2] f2F2A3B | 
[V:3] c8- | 
[V:4] F,8- | 
[V:1] A4d4- | 
[V:2] c3BG2d2- | 
[V:3] c4B4 | 
[V:4] F,4G,4 | 
[V:1] d4c4 | 
[V:2] def6 | 
[V:3] A8 | 
[V:4] D,4F,4 | 
[V:1] B6AG | 
[V:2] dcBAG2B2- | 
[V:3] G4d4- | 
[V:4] G,6F,E, | 
[V:1] F8 | 
[V:2] B2AGF2D2 | 
[V:3] d2c2A4 | 
[V:4] D,6C,B,, | 
[V:1] z4F4 | 
[V:2] E2G2D4 | 
[V:3] c2B2A4 | 
[V:4] A,,2G,,2D,4 | 
[V:1] G4B4 | 
[V:2] z4d4- | 
[V:3] G8 | 
[V:4] G,,8 | 
[V:1] A8 | 
[V:2] d4f4 | 
[V:3] z4D4 | 
[V:4] z8 | 
[V:1] G6F2 | 
[V:2] g4d4 | 
[V:3] E2F2G4 | 
[V:4] z8 | 
[V:1] E3DD4- | 
[V:2] c4d4 | 
[V:3] A4B4- | 
[V:4] z8 | 
[V:1] D4D4 | 
[V:2] d8 | 
[V:3] B2AGA4 | 
[V:4] D,8- | 
[V:1] D4E4- | 
[V:2] z8 | 
[V:3] B4c3B | 
[V:4] D,4C,4- | 
[V:1] E2D2E4 | 
[V:2] z4c4 | 
[V:3] AGG4FE | 
[V:4] C,8 | 
[V:1] F2D2D4- | 
[V:2] B2A2B2A2- | 
[V:3] D4z4 | 
[V:4] D,6C,2 | 
[V:1] D4C4 | 
[V:2] A2G2A4 | 
[V:3] z2D2E2F2 | 
[V:4] B,,4A,,4 | 
[V:1] D8- | 
[V:2] D2d3cBA | 
[V:3] B,8 | 
[V:4] G,,8- | 
[V:1] D8 | 
[V:2] G2FED2F2 | 
[V:3] B8 | 
[V:4] G,,8 | 
[V:1] z8 | 
[V:2] C2c4d2- | 
[V:3] c4A2B2- | 
[V:4] z8 | 
[V:1] B8 | 
[V:2] d2cd_edcB | 
[V:3] BAGFG4 | 
[V:4] z8 | 
[V:1] c4c4 | 
[V:2] A8 | 
[V:3] F4A4 | 
[V:4] z4F,,4 | 
[V:1] d8 | 
[V:2] D8- | 
[V:3] B4A4- | 
[V:4] B,,3C,D,3E, | 
[V:1] d4d4 | 
[V:2] D4B4 | 
[V:3] A4G4 | 
[V:4] F,4G,4 | 
[V:1] c2c4BA | 
[V:2] F2f3edc | 
[V:3] z8 | 
[V:4] A,4F,4 | 
[V:1] G4F4- | 
[V:2] B2G2A4 | 
[V:3] d6e2 | 
[V:4] G,4D,4 | 
[V:1] F2D2C4 | 
[V:2] D4z2c2 | 
[V:3] f4g4- | 
[V:4] z2D,2E,2C,2 | 
[V:1] D6B,2 | 
[V:2] B2G3ABc | 
[V:3] g4d4- | 
[V:4] G,4z2G,2- | 
[V:1] B,4C4 | 
[V:2] d2G2_e4 | 
[V:3] d4c4 | 
[V:4] G,4C,4 | 
[V:1] B,4B4- | 
[V:2] d4B4 | 
[V:3] d4d4 | 
[V:4] G,4z2D,2 | 
[V:1] B2AGA4 | 
[V:2] c8 | 
[V:3] z8 | 
[V:4] E,4F,4 | 
[V:1] B8 | 
[V:2] B8 | 
[V:3] d8- | 
[V:4] B,,4B,4- | 
[V:1] z8 | 
[V:2] z4F4 | 
[V:3] d4c4 | 
[V:4] B,2A,G,A,4 | 
[V:1] B8 | 
[V:2] f4d2f2- | 
[V:3] d8 | 
[V:4] B,4B,,4 | 
[V:1] A4A4 | 
[V:2] f2edc3d | 
[V:3] c8 | 
[V:4] F,4z2F,2 | 
[V:1] G2c4B2 | 
[V:2] _edcBA4 | 
[V:3] z4c4- | 
[V:4] _E,4F,4 | 
[V:1] A2G2A4 | 
[V:2] z2d2e2f2 | 
[V:3] c2B2A4 | 
[V:4] z2G,4F,2 | 
[V:1] B4G4 | 
[V:2] B2d3cBA | 
[V:3] G8 | 
[V:4] G,8 | 
[V:1] d4c2c2- | 
[V:2] G4E2F2 | 
[V:3] B4c4 | 
[V:4] z2G,,2A,,2F,,2 | 
[V:1] c2B2A2G2 | 
[V:2] E2G2F2G2- | 
[V:3] G4A2B2- | 
[V:4] C,2G,,2D,2G,,2 | 
[V:1] B4G2A2- | 
[V:2] G2d2_e2c2- | 
[V:3] BAGFG2F2 | 
[V:4] G,4_E,2F,2- | 
[V:1] AGFEF2E2 | 
[V:2] c2d4G2- | 
[V:3] A6Bc | 
[V:4] F,_E,D,C,D,2C,2 | 
[V:1] D2G4^F2 | 
[V:2] GABcd4- | 
[V:3] B2G2A4 | 
[V:4] G,4D,4 | 
[V:1] G8- | 
[V:2] d2D2_E4 | 
[V:3] G8- | 
[V:4] B,,2G,,2C,3B,, | 
[V:1] G8 ||  
[V:2] D8 ||  
[V:3] G8 ||  
[V:4] G,,8 ||  
[V:1] z8 | 
[V:2] z8 | 
[V:3] z8 | 
[V:4] D,6E,2 | 
[V:1] z8 | 
[V:2] z8 | 
[V:3] z8 | 
[V:4] F,4G,4 | 
[V:1] z8 | 
[V:2] D6E2 | 
[V:3] z8 | 
[V:4] G,,2B,,4C,2 | 
[V:1] z8 | 
[V:2] F4G4 | 
[V:3] z8 | 
[V:4] A,,4G,,4 | 
[V:1] z8 | 
[V:2] B6c2- | 
[V:3] z8 | 
[V:4] z2G,4A,2- | 
[V:1] z8 | 
[V:2] c2B2A4 | 
[V:3] z8 | 
[V:4] A,G,^F,E,F,4 | 
[V:1] z8 | 
[V:2] G8 | 
[V:3] z8 | 
[V:4] G,4C,4 | 
[V:1] z8 | 
[V:2] z4F4 | 
[V:3] z8 | 
[V:4] F,6E,2 | 
[V:1] z8 | 
[V:2] B4A4 | 
[V:3] z8 | 
[V:4] D,4C,4 | 
[V:1] z8 | 
[V:2] G4A4- | 
[V:3] z8 | 
[V:4] B,,4C,4 | 
[V:1] z8 | 
[V:2] A2G2G4- | 
[V:3] z8 | 
[V:4] D,4B,,2C,2- | 
[V:1] z8 | 
[V:2] G4^F4 | 
[V:3] z8 | 
[V:4] C,B,,A,,G,,A,,4 | 
[V:1] G8 | 
[V:2] G8 | 
[V:3] B4d4 | 
[V:4] G,,8 | 
[V:1] G6FE | 
[V:2] C4G4- | 
[V:3] c4d4 | 
[V:4] z8 | 
[V:1] D4G4- | 
[V:2] G4C4 | 
[V:3] B4c4 | 
[V:4] z8 | 
[V:1] G4^F4 | 
[V:2] G2E2D4 | 
[V:3] B2G2A4 | 
[V:4] z8 | 
[V:1] G4G4 | 
[V:2] d4c2B2- | 
[V:3] G4z4 | 
[V:4] z8 | 
[V:1] G4A4 | 
[V:2] B2AGF4 | 
[V:3] G4c4 | 
[V:4] z8 | 
[V:1] B4A2F2 | 
[V:2] z2G2F2D2 | 
[V:3] B4c2d2 | 
[V:4] z8 | 
[V:1] G4F4- | 
[V:2] E4D4 | 
[V:3] B2c2d2B2 | 
[V:4] z8 | 
[V:1] F4G2F2 | 
[V:2] z8 | 
[V:3] A4G4- | 
[V:4] z8 | 
[V:1] E4D4- | 
[V:2] z8 | 
[V:3] G8 | 
[V:4] z8 | 
[V:1] D4F2G2 | 
[V:2] D6E2 | 
[V:3] z8 | 
[V:4] z8 | 
[V:1] A4B4- | 
[V:2] F4G4 | 
[V:3] z8 | 
[V:4] z8 | 
[V:1] B2AGG4- | 
[V:2] B6c2- | 
[V:3] z8 | 
[V:4] z8 | 
[V:1] G4^F4 | 
[V:2] c2B2A4 | 
[V:3] z8 | 
[V:4] z8 | 
[V:1] G8 | 
[V:2] G8 | 
[V:3] z8 | 
[V:4] z8 | 
[V:1] z4G4 | 
[V:2] F4B4- | 
[V:3] z8 | 
[V:4] z8 | 
[V:1] B4B4 | 
[V:2] B2A2G4 | 
[V:3] B4d4 | 
[V:4] z8 | 
[V:1] A4A4 | 
[V:2] A4F4 | 
[V:3] c4d4 | 
[V:4] z4D,4 | 
[V:1] G4G4 | 
[V:2] G2g3eg2 | 
[V:3] B4c4- | 
[V:4] E,4C,4 | 
[V:1] A6GF | 
[V:2] f2edc2d2 | 
[V:3] c2B2A4 | 
[V:4] F,6E,D, | 
[V:1] E8 | 
[V:2] B2c3BGA | 
[V:3] G8 | 
[V:4] E,2C,3D,E,F, | 
[V:1] D2F4ED | 
[V:2] B3AF2G2 | 
[V:3] z8 | 
[V:4] G,2D,4C,B,, | 
[V:1] C4D4 | 
[V:2] A2c4=B2 | 
[V:3] z4G4 | 
[V:4] A,,4G,,4 | 
[V:1] E8 | 
[V:2] c4z2G2- | 
[V:3] c6B2 | 
[V:4] z4C,4- | 
[V:1] C4F4 | 
[V:2] G2A2B4 | 
[V:3] c4d4 | 
[V:4] C,4B,,4 | 
[V:1] E2D2D4- | 
[V:2] G4z4 | 
[V:3] c2d2B2G2- | 
[V:4] C,2B,,2G,,4 | 
[V:1] D4C4 | 
[V:2] d4f4 | 
[V:3] G2B2A4 | 
[V:4] z2G,2A,2C2 | 
[V:1] D8 | 
[V:2] g4d4- | 
[V:3] G8 | 
[V:4] B,2G,4F,E, | 
[V:1] z4F2G2 | 
[V:2] d4d4 | 
[V:3] z8 | 
[V:4] D,8 | 
[V:1] A6GF | 
[V:2] c2d4B2 | 
[V:3] z8 | 
[V:4] z8 | 
[V:1] E4D4- | 
[V:2] c4d4 | 
[V:3] z4z2d2 | 
[V:4] z8 | 
[V:1] D4G4- | 
[V:2] z8 | 
[V:3] f4c4 | 
[V:4] z8 | 
[V:1] G4^F4 | 
[V:2] z8 | 
[V:3] B2G2A4 | 
[V:4] z8 | 
[V:1] G6FE | 
[V:2] z4D4- | 
[V:3] G4z2F2 | 
[V:4] G,,6B,,2- | 
[V:1] D4C4- | 
[V:2] D4F4- | 
[V:3] B4A4 | 
[V:4] B,,4F,,2F,2- | 
[V:1] C4F4 | 
[V:2] F2G2A4- | 
[V:3] c4d2d2- | 
[V:4] F,2E,2D,4 | 
[V:1] E4D4- | 
[V:2] A4D4 | 
[V:3] d2c2B4 | 
[V:4] A,,4B,,2G,,2 | 
[V:1] D4C4 | 
[V:2] F4z2G2 | 
[V:3] A4G4 | 
[V:4] D,4E,4 | 
[V:1] D4B,4 | 
[V:2] A2B2G2g2 | 
[V:3] z8 | 
[V:4] D,2G,4F,E, | 
[V:1] A,8 | 
[V:2] ag^fe^f4 | 
[V:3] z8 | 
[V:4] F,E,D,C,D,4 | 
[V:1] G,8 | 
[V:2] g8 | 
[V:3] d6e2 | 
[V:4] G,,8 | 
[V:1] z4G,4 | 
[V:2] z4d4- | 
[V:3] f4g4 | 
[V:4] D,4G,,2G,2- | 
[V:1] B,2C2D4 | 
[V:2] d2e2f4 | 
[V:3] d8 | 
[V:4] G,2F,E,D,4 | 
[V:1] C4F4 | 
[V:2] g4d4 | 
[V:3] z4d4 | 
[V:4] _E,2C,2D,2B,,2 | 
[V:1] E2D2D4- | 
[V:2] G2c2B2A2- | 
[V:3] c4d4 | 
[V:4] C,2A,,2B,,2D,2 | 
[V:1] D4^C4 | 
[V:2] A2GFA4- | 
[V:3] e8 | 
[V:4] A,,8 | 
[V:1] D8 | 
[V:2] A2B2A2d2- | 
[V:3] d4d4 | 
[V:4] D,8- | 
[V:1] z4D4 | 
[V:2] d2cBA4 | 
[V:3] f6e2 | 
[V:4] D,8 | 
[V:1] F2G2A4- | 
[V:2] D4z2f2- | 
[V:3] d4c4- | 
[V:4] z4F,4- | 
[V:1] A4c2A2 | 
[V:2] f2edc2f2 | 
[V:3] c2B2A4 | 
[V:4] F,8 | 
[V:1] B6AG | 
[V:2] d2g4c2 | 
[V:3] G4z2F2 | 
[V:4] G,4E,2F,2 | 
[V:1] F4G4 | 
[V:2] defde4 | 
[V:3] B2A2c4- | 
[V:4] D,4z2C,2 | 
[V:1] A4F4 | 
[V:2] z2A3GAB | 
[V:3] c4d4 | 
[V:4] F,4D,4 | 
[V:1] B2A2G4 | 
[V:2] G2d3B_e2 | 
[V:3] d4B2c2 | 
[V:4] G,3F,G,2C,2 | 
[V:1] F8 | 
[V:2] d4z2d2 | 
[V:3] A8 | 
[V:4] D,4z2D,2 | 
[V:1] B4A4 | 
[V:2] B2G2D4 | 
[V:3] G4z2F2 | 
[V:4] _E,4F,4 | 
[V:1] B4c2B2 | 
[V:2] d4z2d2 | 
[V:3] B4z2B2 | 
[V:4] G,4z2G,2 | 
[V:1] A2G2G4- | 
[V:2] f2F2B3c | 
[V:3] c4z2G2 | 
[V:4] F,4_E,4 | 
[V:1] G4^F4 | 
[V:2] d4z2D2- | 
[V:3] A4A4 | 
[V:4] D,8 | 
[V:1] G8- | 
[V:2] D2_E2D4 | 
[V:3] G8- | 
[V:4] G,,8- | 
[V:1] G8 |]  
[V:2] G8 |]  
[V:3] G8 |]  
[V:4] G,,8 |]  



